Flat-Remix-Blue-Dark/apps/scalable/utilities-system-monitor.svg

<svg xmlns="http://www.w3.org/2000/svg" width="512" height="512" version="1.1" viewBox="0 0 384 384"> <g> <path style="fill:rgb(15.294%,16.470%,20.392%)" d="M 27.90625 27.90625 L 356.097656 27.90625 L 356.097656 356.097656 L 27.90625 356.097656 Z M 27.90625 27.90625"/> <path style="fill:rgb(20.000%,21.176%,26.274%)" d="M 106.914062 27.90625 L 106.914062 106.914062 L 27.90625 106.914062 L 27.90625 112.992188 L 106.914062 112.992188 L 106.914062 143.378906 L 27.90625 143.378906 L 27.90625 149.457031 L 106.914062 149.457031 L 106.914062 192 L 27.90625 192 L 27.90625 198.078125 L 106.914062 198.078125 L 106.914062 234.542969 L 27.90625 234.542969 L 27.90625 240.621094 L 106.914062 240.621094 L 106.914062 271.007812 L 27.90625 271.007812 L 27.90625 277.085938 L 106.914062 277.085938 L 106.914062 356.09375 L 112.992188 356.09375 L 112.992188 277.085938 L 143.378906 277.085938 L 143.378906 356.09375 L 149.457031 356.09375 L 149.457031 277.085938 L 192 277.085938 L 192 356.09375 L 198.078125 356.09375 L 198.078125 277.085938 L 234.542969 277.085938 L 234.542969 356.09375 L 240.621094 356.09375 L 240.621094 277.085938 L 271.007812 277.085938 L 271.007812 356.09375 L 277.085938 356.09375 L 277.085938 277.085938 L 356.09375 277.085938 L 356.09375 271.007812 L 277.085938 271.007812 L 277.085938 240.621094 L 356.09375 240.621094 L 356.09375 234.542969 L 277.085938 234.542969 L 277.085938 198.078125 L 356.09375 198.078125 L 356.09375 192 L 277.085938 192 L 277.085938 149.457031 L 356.09375 149.457031 L 356.09375 143.378906 L 277.085938 143.378906 L 277.085938 112.992188 L 356.09375 112.992188 L 356.09375 106.914062 L 277.085938 106.914062 L 277.085938 27.90625 L 271.007812 27.90625 L 271.007812 106.914062 L 240.621094 106.914062 L 240.621094 27.90625 L 234.542969 27.90625 L 234.542969 106.914062 L 198.078125 106.914062 L 198.078125 27.90625 L 192 27.90625 L 192 106.914062 L 149.457031 106.914062 L 149.457031 27.90625 L 143.378906 27.90625 L 143.378906 106.914062 L 112.992188 106.914062 L 112.992188 27.90625 Z M 112.992188 112.992188 L 143.378906 112.992188 L 143.378906 143.378906 L 112.992188 143.378906 Z M 149.457031 112.992188 L 192 112.992188 L 192 143.378906 L 149.457031 143.378906 Z M 198.078125 112.992188 L 234.542969 112.992188 L 234.542969 143.378906 L 198.078125 143.378906 Z M 240.621094 112.992188 L 271.007812 112.992188 L 271.007812 143.378906 L 240.621094 143.378906 Z M 112.992188 149.457031 L 143.378906 149.457031 L 143.378906 192 L 112.992188 192 Z M 149.457031 149.457031 L 192 149.457031 L 192 192 L 149.457031 192 Z M 198.078125 149.457031 L 234.542969 149.457031 L 234.542969 192 L 198.078125 192 Z M 240.621094 149.457031 L 271.007812 149.457031 L 271.007812 192 L 240.621094 192 Z M 112.992188 198.078125 L 143.378906 198.078125 L 143.378906 234.542969 L 112.992188 234.542969 Z M 149.457031 198.078125 L 192 198.078125 L 192 234.542969 L 149.457031 234.542969 Z M 198.078125 198.078125 L 234.542969 198.078125 L 234.542969 234.542969 L 198.078125 234.542969 Z M 240.621094 198.078125 L 271.007812 198.078125 L 271.007812 234.542969 L 240.621094 234.542969 Z M 112.992188 240.621094 L 143.378906 240.621094 L 143.378906 271.007812 L 112.992188 271.007812 Z M 149.457031 240.621094 L 192 240.621094 L 192 271.007812 L 149.457031 271.007812 Z M 198.078125 240.621094 L 234.542969 240.621094 L 234.542969 271.007812 L 198.078125 271.007812 Z M 240.621094 240.621094 L 271.007812 240.621094 L 271.007812 271.007812 L 240.621094 271.007812 Z M 240.621094 240.621094"/> <path style="fill-rule:evenodd;fill:rgb(97.254%,87.058%,40.784%)" d="M 307.472656 137.300781 L 264.929688 161.613281 L 228.464844 155.535156 L 198.078125 179.84375 L 167.691406 173.765625 L 149.457031 179.84375 L 137.300781 185.921875 L 119.070312 185.921875 L 112.992188 192 L 82.601562 185.921875 L 70.449219 192 L 58.292969 198.078125 L 52.214844 192 L 27.90625 248.726562 L 27.90625 356.09375 L 356.09375 356.09375 L 356.09375 143.378906 L 331.785156 143.378906 Z M 307.472656 137.300781"/> <path style="fill-rule:evenodd;fill:rgb(9.803%,63.137%,52.941%)" d="M 246.699219 210.234375 L 222.386719 216.308594 L 204.15625 234.542969 L 161.613281 234.542969 L 143.378906 240.621094 L 131.222656 240.621094 L 106.914062 277.085938 L 100.835938 271.007812 L 76.527344 319.628906 L 46.136719 307.472656 L 27.90625 321.148438 L 27.90625 356.09375 L 356.09375 356.09375 L 356.09375 210.234375 Z M 246.699219 210.234375"/> <path style="fill-rule:evenodd;fill:rgb(30.980%,78.431%,80.784%)" d="M 289.242188 192 L 246.699219 222.386719 L 228.464844 240.621094 L 204.15625 246.699219 L 179.84375 240.621094 L 155.535156 240.621094 L 112.992188 295.320312 L 100.835938 289.242188 L 76.527344 319.628906 L 64.371094 319.628906 L 58.292969 325.707031 L 46.136719 319.628906 L 27.90625 333.304688 L 27.90625 356.09375 L 356.09375 356.09375 L 356.09375 198.078125 L 350.015625 198.078125 L 337.863281 204.15625 L 313.550781 210.234375 Z M 289.242188 192"/> <path style="fill:rgb(6.666%,17.647%,36.078%)" d="M 15.75 27.90625 L 15.75 356.09375 L 368.25 356.09375 L 368.25 27.90625 Z M 27.90625 52.214844 L 356.09375 52.214844 L 356.09375 343.941406 L 27.90625 343.941406 Z M 27.90625 52.214844"/> <path style="fill:rgb(100.000%,100.000%,100.000%)" d="M 356.09375 40.0625 C 356.09375 43.417969 353.375 46.136719 350.015625 46.136719 C 346.660156 46.136719 343.941406 43.417969 343.941406 40.0625 C 343.941406 36.703125 346.660156 33.984375 350.015625 33.984375 C 353.375 33.984375 356.09375 36.703125 356.09375 40.0625 Z M 356.09375 40.0625"/> <path style="fill:rgb(30.980%,78.431%,80.784%)" d="M 27.90625 52.214844 L 356.097656 52.214844 L 356.097656 58.40625 L 27.90625 58.40625 Z M 27.90625 52.214844"/> </g> </svg>

<svg width="512" height="512" version="1.1" viewBox="0 0 384 384" xmlns="http://www.w3.org/2000/svg" xmlns:xlink="http://www.w3.org/1999/xlink"><defs><clipPath><rect width="384" height="384"/></clipPath><clipPath><rect width="384" height="384"/></clipPath><clipPath><rect width="384" height="384"/></clipPath><clipPath><rect width="384" height="384"/></clipPath><clipPath><rect width="384" height="384"/></clipPath><clipPath><rect width="384" height="384"/></clipPath><clipPath><rect width="384" height="384"/></clipPath><clipPath><rect width="384" height="384"/></clipPath><clipPath><rect width="384" height="384"/></clipPath><clipPath><rect width="384" height="384"/></clipPath><clipPath><rect width="384" height="384"/></clipPath><clipPath><rect width="384" height="384"/></clipPath><clipPath><rect width="384" height="384"/></clipPath><clipPath><rect width="384" height="384"/></clipPath><clipPath><rect width="384" height="384"/></clipPath><clipPath><rect width="384" height="384"/></clipPath><clipPath><rect width="384" height="384"/></clipPath><clipPath><rect width="384" height="384"/></clipPath><clipPath><rect width="384" height="384"/></clipPath><clipPath><rect width="384" height="384"/></clipPath><clipPath><rect width="384" height="384"/></clipPath><clipPath><rect width="384" height="384"/></clipPath><clipPath><rect width="384" height="384"/></clipPath><clipPath><rect width="384" height="384"/></clipPath><clipPath><rect width="384" height="384"/></clipPath><clipPath><rect width="384" height="384"/></clipPath><clipPath><rect width="384" height="384"/></clipPath><clipPath><rect width="384" height="384"/></clipPath><clipPath><rect width="384" height="384"/></clipPath><clipPath><rect width="384" height="384"/></clipPath><clipPath><rect width="384" height="384"/></clipPath><clipPath><rect width="384" height="384"/></clipPath><clipPath><rect width="384" height="384"/></clipPath><clipPath><rect width="384" height="384"/></clipPath><clipPath><rect width="384" height="384"/></clipPath><clipPath><rect width="384" height="384"/></clipPath><clipPath><rect width="384" height="384"/></clipPath><clipPath><rect width="384" height="384"/></clipPath><clipPath><rect width="384" height="384"/></clipPath><clipPath><rect width="384" height="384"/></clipPath><clipPath><rect width="384" height="384"/></clipPath><clipPath><rect width="384" height="384"/></clipPath><clipPath><rect width="384" height="384"/></clipPath><clipPath><rect width="384" height="384"/></clipPath><clipPath><rect width="384" height="384"/></clipPath><clipPath><rect width="384" height="384"/></clipPath><clipPath><rect width="384" height="384"/></clipPath><clipPath><rect width="384" height="384"/></clipPath><clipPath><rect width="384" height="384"/></clipPath><clipPath><rect width="384" height="384"/></clipPath><clipPath id="c"><path d="m111 119h177v23h-177z"/></clipPath><clipPath><path d="m368.64 199.88c0-93.234-75.602-168.75-168.75-168.75-93.152 0-168.75 75.516-168.75 168.75s75.598 168.75 168.75 168.75c93.148 0 168.75-75.516 168.75-168.75z"/></clipPath><clipPath id="b"><path d="m177 130h45v89h-45z"/></clipPath><clipPath><path d="m368.64 199.88c0-93.234-75.602-168.75-168.75-168.75-93.152 0-168.75 75.516-168.75 168.75s75.598 168.75 168.75 168.75c93.148 0 168.75-75.516 168.75-168.75z"/></clipPath><clipPath id="a"><path d="m111 207h177v89h-177z"/></clipPath><clipPath><path d="m368.64 199.88c0-93.234-75.602-168.75-168.75-168.75-93.152 0-168.75 75.516-168.75 168.75s75.598 168.75 168.75 168.75c93.148 0 168.75-75.516 168.75-168.75z"/></clipPath><clipPath id="d"><rect width="384" height="384"/></clipPath><g clip-path="url(#d)"><g clip-path="url(#c)"></g><g clip-path="url(#b)"></g><g clip-path="url(#a)"></g></g><clipPath><rect width="384" height="384"/></clipPath><clipPath><rect width="384" height="384"/></clipPath><clipPath><rect width="384" height="384"/></clipPath><clipPath><rect width="384" height="384"/></clipPath><clipPath><rect width="384" height="384"/></clipPath><clipPath><rect width="384" height="384"/></clipPath><clipPath><rect width="384" height="384"/></clipPath><clipPath><rect width="384" height="384"/></clipPath><clipPath><rect width="384" height="384"/></clipPath><clipPath><rect width="384" height="384"/></clipPath><clipPath><rect width="384" height="384"/></clipPath></defs><path d="m15.75 27.906h352.5v328.19h-352.5z" style="fill:#272a34;stroke-width:1.0364"/><path d="m106.91 27.906v79.008h-79.008v6.0781h79.008v30.387h-79.008v6.0781h79.008v42.543h-79.008v6.0781h79.008v36.465h-79.008v6.0781h79.008v30.387h-79.008v6.0781h79.008v79.008h6.0781v-79.008h30.387v79.008h6.0781v-79.008h42.543v79.008h6.0781v-79.008h36.465v79.008h6.0781v-79.008h30.387v79.008h6.0781v-79.008h79.008v-6.0781h-79.008v-30.387h79.008v-6.0781h-79.008v-36.465h79.008v-6.0781h-79.008v-42.543h79.008v-6.0781h-79.008v-30.387h79.008v-6.0781h-79.008v-79.008h-6.0781v79.008h-30.387v-79.008h-6.0781v79.008h-36.465v-79.008h-6.0781v79.008h-42.543v-79.008h-6.0781v79.008h-30.387v-79.008zm6.0781 85.086h30.387v30.387h-30.387zm36.465 0h42.543v30.387h-42.543zm48.621 0h36.465v30.387h-36.465zm42.543 0h30.387v30.387h-30.387zm-127.63 36.465h30.387v42.543h-30.387zm36.465 0h42.543v42.543h-42.543zm48.621 0h36.465v42.543h-36.465zm42.543 0h30.387v42.543h-30.387zm-127.63 48.621h30.387v36.465h-30.387zm36.465 0h42.543v36.465h-42.543zm48.621 0h36.465v36.465h-36.465zm42.543 0h30.387v36.465h-30.387zm-127.63 42.543h30.387v30.387h-30.387zm36.465 0h42.543v30.387h-42.543zm48.621 0h36.465v30.387h-36.465zm42.543 0h30.387v30.387h-30.387z" style="fill:#333643"/><path d="m307.47 129.8-42.543 24.312-36.465-6.0781-30.387 24.309-30.387-6.0781-18.234 6.0781-12.156 6.0781h-18.23l-6.0781 6.0781-30.391-6.0781-12.152 6.0781-12.156 6.0781-6.0781-6.0781-24.309 56.727v107.37h328.19v-212.71h-24.309z" style="fill-rule:evenodd;fill:#2d2602;opacity:.3"/><path d="m307.47 137.3-42.543 24.312-36.465-6.0781-30.387 24.309-30.387-6.0781-18.234 6.0781-12.156 6.0781h-18.23l-6.0781 6.0781-30.391-6.0781-12.152 6.0781-12.156 6.0781-6.0781-6.0781-24.309 56.727v107.37h328.19v-212.71h-24.309z" style="fill-rule:evenodd;fill:#f8de66"/><path d="m246.7 184.73-24.312 6.0742-18.23 18.234h-42.543l-18.234 6.0781h-12.156l-24.309 36.465-6.0781-6.0781-24.309 48.621-30.391-12.156-18.23 13.676v34.945h328.19v-145.86z" style="fill-rule:evenodd;fill:#03120f;opacity:.1"/><path d="m246.7 192.23-24.312 6.0742-18.23 18.234h-42.543l-18.234 6.0781h-12.156l-24.309 36.465-6.0781-6.0781-24.309 48.621-30.391-12.156-18.23 13.676v34.945h328.19v-145.86z" style="fill-rule:evenodd;fill:#17a185"/><path d="m289.24 184.5-42.543 30.387-18.234 18.234-24.309 6.0781-24.312-6.0781h-24.309l-42.543 54.699-12.156-6.0781-24.309 30.387h-12.156l-6.0781 6.0781-12.156-6.0781-18.23 13.676v22.789h328.19v-158.02h-6.0781l-12.152 6.0781-24.312 6.0781z" style="fill-rule:evenodd;fill:#051213;opacity:.1"/><path d="m289.24 192-42.543 30.387-18.234 18.234-24.309 6.0781-24.312-6.0781h-24.309l-42.543 54.699-12.156-6.0781-24.309 30.387h-12.156l-6.0781 6.0781-12.156-6.0781-18.23 13.676v22.789h328.19v-158.02h-6.0781l-12.152 6.0781-24.312 6.0781z" style="fill-rule:evenodd;fill:#4cc7cc"/><path d="m15.75 27.906v328.19h352.5v-328.19zm12.156 24.309h328.19v291.73h-328.19z" style="fill:#0f2751"/><path d="m356.09 40.062c0 3.3555-2.7188 6.0742-6.0781 6.0742-3.3555 0-6.0742-2.7188-6.0742-6.0742 0-3.3594 2.7188-6.0781 6.0742-6.0781 3.3594 0 6.0781 2.7188 6.0781 6.0781z" style="fill:#d41919"/><path d="m337.09 40.062c0 3.3555-2.7188 6.0742-6.0781 6.0742-3.3555 0-6.0742-2.7188-6.0742-6.0742 0-3.3594 2.7188-6.0781 6.0742-6.0781 3.3594 0 6.0781 2.7188 6.0781 6.0781z" style="fill:#367bf0"/><path d="m318.1 40.062c0 3.3555-2.7188 6.0742-6.0781 6.0742-3.3555 0-6.0742-2.7188-6.0742-6.0742 0-3.3594 2.7188-6.0781 6.0742-6.0781 3.3594 0 6.0781 2.7188 6.0781 6.0781z" style="fill:#fd7d00"/></svg>
